dist/assets/img/logo_ph-big.svg

<svg xmlns="http://www.w3.org/2000/svg" preserveAspectRatio="xMidYMid" width="200" height="87.969" viewBox="0 0 200 87.969"><path d="M199.139 87.798h-6.583a.849.849 0 01-.767-.487l-5.175-11.025h-6.945v10.847c0 .468-.38.847-.848.847h-6.332a.847.847 0 01-.847-.847v-35.81c0-.468.379-.847.847-.847h22.085a5.06 5.06 0 015.059 5.06v16.322a4.428 4.428 0 01-4.428 4.428l4.705 10.313a.847.847 0 01-.771 1.199zm-7.533-28.362c0-.913-.74-1.653-1.653-1.653h-10.284v11.184h10.284c.913 0 1.653-.74 1.653-1.653v-7.878zm-26.421 28.435h-24.581a.9.9 0 01-.899-.9V51.266a.9.9 0 01.899-.9h24.101a.9.9 0 01.899.9v5.507a.9.9 0 01-.899.9h-16.88a.093.093 0 00-.093.093v7.359c0 .051.042.093.093.093h12.9a.9.9 0 01.9.899v5.344a.9.9 0 01-.9.899h-12.993v8.369h17.453c.497 0 .899.402.899.899v5.343a.9.9 0 01-.899.9zm-30.794-30.239h-9.142v29.433a.806.806 0 01-.806.806h-6.332a.806.806 0 01-.806-.806V57.632h-9.129a.806.806 0 01-.806-.807v-5.653c0-.445.361-.806.806-.806h26.215c.446 0 .806.361.806.806v5.653c0 .446-.36.807-.806.807zM93.859 87.898a.42.42 0 01-.377-.235l-11.24-22.824c-.197-.4-.798-.26-.798.186v22.452a.421.421 0 01-.421.421h-7.147a.42.42 0 01-.42-.421V50.814a.42.42 0 01.42-.421h9.007a.42.42 0 01.379.24l10.767 22.566c.193.404.8.267.8-.181V50.814a.42.42 0 01.42-.421h7.179c.233 0 .421.189.421.421v36.663a.42.42 0 01-.421.421h-8.569zm-33.413 0H41.779a4.963 4.963 0 01-4.964-4.964V51.219c0-.456.369-.826.825-.826h6.445c.456 0 .825.37.825.826v27.992c0 .853.692 1.545 1.546 1.545h9.313c.853 0 1.545-.692 1.545-1.545V51.219c0-.456.37-.826.826-.826h6.445c.456 0 .825.37.825.826v31.715a4.963 4.963 0 01-4.964 4.964zm-32.568 0h-6.483a.806.806 0 01-.806-.806V72.717H8.102v14.375a.806.806 0 01-.806.806H.813a.806.806 0 01-.806-.806V51.2c0-.446.361-.807.806-.807h6.483c.445 0 .806.361.806.807v14.375h12.487V51.2c0-.446.361-.807.806-.807h6.483c.446 0 .807.361.807.807v35.892a.806.806 0 01-.807.806zm116.777-50.303V.091h8.027v30.362h16.912v7.142h-24.939zm-6.46 0h-24.67a.855.855 0 01-.855-.855V.946c0-.473.383-.855.855-.855h24.189c.473 0 .855.382.855.855v5.596a.854.854 0 01-.855.855h-17.017v7.546h13.038c.472 0 .855.382.855.855v5.432a.855.855 0 01-.855.855h-13.038v8.368h17.498c.472 0 .855.383.855.855v5.432a.855.855 0 01-.855.855zm-30.438 0h-7.274a.823.823 0 01-.731-.445l-5.811-11.257a.823.823 0 00-1.463 0L86.666 37.15a.823.823 0 01-.731.445h-7.274a.823.823 0 01-.722-1.219l10.18-18.555-9.013-16.429a.823.823 0 01.721-1.219h6.87c.304 0 .583.168.726.436l5.156 9.683a.823.823 0 001.453 0L99.188.609a.823.823 0 01.726-.436h6.869a.823.823 0 01.722 1.219l-9.109 16.605 10.083 18.379a.823.823 0 01-.722 1.219zm-35.428-.082h-6.285a.906.906 0 01-.905-.906V.914c0-.5.405-.906.905-.906h6.285c.5 0 .905.406.905.906v35.693c0 .5-.405.906-.905.906zm-18.293-10.83h-15.05v10.13a.823.823 0 01-.824.823h-6.38a.822.822 0 01-.823-.823V.955c0-.455.368-.823.823-.823h22.254c2.714 0 4.914 2.2 4.914 4.914v16.723c0 2.714-2.2 4.914-4.914 4.914zM50.923 9.1c0-.918-.743-1.662-1.661-1.662H38.986v11.926h10.276a1.66 1.66 0 001.661-1.661V9.1z" fill-rule="evenodd"/></svg>

<svg xmlns="http://www.w3.org/2000/svg" xmlns:xlink="http://www.w3.org/1999/xlink" preserveAspectRatio="xMidYMid" width="200" height="87.969" viewBox="0 0 200 87.969">
  <defs>
    <style>
      .cls-1 {
        fill: #000;
        fill-rule: evenodd;
      }
    </style>
  </defs>
  <g>
    <path d="M199.139,87.798 L192.556,87.798 C192.228,87.798 191.929,87.608 191.789,87.311 L186.614,76.286 L179.669,76.286 L179.669,87.133 C179.669,87.601 179.289,87.980 178.821,87.980 L172.489,87.980 C172.021,87.980 171.642,87.601 171.642,87.133 L171.642,51.323 C171.642,50.855 172.021,50.476 172.489,50.476 L194.574,50.476 C197.368,50.476 199.633,52.741 199.633,55.536 L199.633,71.858 C199.633,74.303 197.651,76.286 195.205,76.286 L199.910,86.599 C200.166,87.160 199.756,87.798 199.139,87.798 ZM191.606,59.436 C191.606,58.523 190.866,57.783 189.953,57.783 L179.669,57.783 L179.669,68.967 L189.953,68.967 C190.866,68.967 191.606,68.227 191.606,67.314 L191.606,59.436 ZM165.185,87.871 L140.604,87.871 C140.108,87.871 139.705,87.468 139.705,86.971 L139.705,51.266 C139.705,50.769 140.108,50.366 140.604,50.366 L164.705,50.366 C165.201,50.366 165.604,50.769 165.604,51.266 L165.604,56.773 C165.604,57.270 165.201,57.673 164.705,57.673 L147.825,57.673 C147.774,57.673 147.732,57.714 147.732,57.766 L147.732,65.125 C147.732,65.176 147.774,65.218 147.825,65.218 L160.725,65.218 C161.222,65.218 161.625,65.621 161.625,66.117 L161.625,71.461 C161.625,71.957 161.222,72.360 160.725,72.360 L147.732,72.360 L147.732,80.729 L165.185,80.729 C165.682,80.729 166.084,81.131 166.084,81.628 L166.084,86.971 C166.084,87.468 165.682,87.871 165.185,87.871 ZM134.391,57.632 L125.249,57.632 L125.249,87.065 C125.249,87.510 124.888,87.871 124.443,87.871 L118.111,87.871 C117.666,87.871 117.305,87.510 117.305,87.065 L117.305,57.632 L108.176,57.632 C107.731,57.632 107.370,57.271 107.370,56.825 L107.370,51.172 C107.370,50.727 107.731,50.366 108.176,50.366 L134.391,50.366 C134.837,50.366 135.197,50.727 135.197,51.172 L135.197,56.825 C135.197,57.271 134.837,57.632 134.391,57.632 ZM93.859,87.898 C93.699,87.898 93.553,87.807 93.482,87.663 L82.242,64.839 C82.045,64.439 81.444,64.579 81.444,65.025 L81.444,87.477 C81.444,87.710 81.255,87.898 81.023,87.898 L73.876,87.898 C73.644,87.898 73.456,87.710 73.456,87.477 L73.456,50.814 C73.456,50.582 73.644,50.393 73.876,50.393 L82.883,50.393 C83.045,50.393 83.193,50.487 83.262,50.633 L94.029,73.199 C94.222,73.603 94.829,73.466 94.829,73.018 L94.829,50.814 C94.829,50.582 95.017,50.393 95.249,50.393 L102.428,50.393 C102.661,50.393 102.849,50.582 102.849,50.814 L102.849,87.477 C102.849,87.710 102.661,87.898 102.428,87.898 L93.859,87.898 ZM60.446,87.898 L41.779,87.898 C39.037,87.898 36.815,85.676 36.815,82.934 L36.815,51.219 C36.815,50.763 37.184,50.393 37.640,50.393 L44.085,50.393 C44.541,50.393 44.910,50.763 44.910,51.219 L44.910,79.211 C44.910,80.064 45.602,80.756 46.456,80.756 L55.769,80.756 C56.622,80.756 57.314,80.064 57.314,79.211 L57.314,51.219 C57.314,50.763 57.684,50.393 58.140,50.393 L64.585,50.393 C65.041,50.393 65.410,50.763 65.410,51.219 L65.410,82.934 C65.410,85.676 63.188,87.898 60.446,87.898 ZM27.878,87.898 L21.395,87.898 C20.950,87.898 20.589,87.537 20.589,87.092 L20.589,72.717 L8.102,72.717 L8.102,87.092 C8.102,87.537 7.741,87.898 7.296,87.898 L0.813,87.898 C0.368,87.898 0.007,87.537 0.007,87.092 L0.007,51.200 C0.007,50.754 0.368,50.393 0.813,50.393 L7.296,50.393 C7.741,50.393 8.102,50.754 8.102,51.200 L8.102,65.575 L20.589,65.575 L20.589,51.200 C20.589,50.754 20.950,50.393 21.395,50.393 L27.878,50.393 C28.324,50.393 28.685,50.754 28.685,51.200 L28.685,87.092 C28.685,87.537 28.324,87.898 27.878,87.898 Z" class="cls-1"/>
    <path d="M144.655,37.595 L144.655,0.091 L152.682,0.091 L152.682,30.453 L169.594,30.453 L169.594,37.595 L144.655,37.595 ZM138.195,37.595 L113.525,37.595 C113.053,37.595 112.670,37.212 112.670,36.740 L112.670,0.946 C112.670,0.473 113.053,0.091 113.525,0.091 L137.714,0.091 C138.187,0.091 138.569,0.473 138.569,0.946 L138.569,6.542 C138.569,7.015 138.187,7.397 137.714,7.397 L120.697,7.397 L120.697,14.943 L133.735,14.943 C134.207,14.943 134.590,15.325 134.590,15.798 L134.590,21.230 C134.590,21.702 134.207,22.085 133.735,22.085 L120.697,22.085 L120.697,30.453 L138.195,30.453 C138.667,30.453 139.050,30.836 139.050,31.308 L139.050,36.740 C139.050,37.212 138.667,37.595 138.195,37.595 ZM107.757,37.595 L100.483,37.595 C100.175,37.595 99.893,37.423 99.752,37.150 L93.941,25.893 C93.634,25.299 92.784,25.299 92.478,25.893 L86.666,37.150 C86.525,37.423 86.243,37.595 85.935,37.595 L78.661,37.595 C78.035,37.595 77.638,36.925 77.939,36.376 L88.119,17.821 L79.106,1.392 C78.805,0.844 79.202,0.173 79.827,0.173 L86.697,0.173 C87.001,0.173 87.280,0.341 87.423,0.609 L92.579,10.292 C92.889,10.874 93.722,10.874 94.032,10.292 L99.188,0.609 C99.331,0.341 99.610,0.173 99.914,0.173 L106.783,0.173 C107.409,0.173 107.806,0.844 107.505,1.392 L98.396,17.997 L108.479,36.376 C108.780,36.925 108.383,37.595 107.757,37.595 ZM72.329,37.513 L66.044,37.513 C65.544,37.513 65.139,37.107 65.139,36.607 L65.139,0.914 C65.139,0.414 65.544,0.008 66.044,0.008 L72.329,0.008 C72.829,0.008 73.234,0.414 73.234,0.914 L73.234,36.607 C73.234,37.107 72.829,37.513 72.329,37.513 ZM54.036,26.683 L38.986,26.683 L38.986,36.813 C38.986,37.268 38.617,37.636 38.162,37.636 L31.782,37.636 C31.327,37.636 30.959,37.268 30.959,36.813 L30.959,0.955 C30.959,0.500 31.327,0.132 31.782,0.132 L54.036,0.132 C56.750,0.132 58.950,2.332 58.950,5.046 L58.950,21.769 C58.950,24.483 56.750,26.683 54.036,26.683 ZM50.923,9.100 C50.923,8.182 50.180,7.438 49.262,7.438 L38.986,7.438 L38.986,19.364 L49.262,19.364 C50.180,19.364 50.923,18.621 50.923,17.703 L50.923,9.100 Z" class="cls-1"/>
  </g>
</svg>
